X:1
T:A minor Oliver Holden, 1800
T:William Enfield, 1795 66. 86. (S. M.)
T:Serepta No copyright. Treble-Tenor-Bass from Plain Psalmody , 1800; Counter by B. C. Johnston, 2015.
%%score [ 1 2 3 4 ]
L:1/8
M:4/4
K:C
V:1 treble nm="Treble" snm="Tr."
V:2 treble nm="Counter" snm="C."
V:3 treble-8 nm="Tenor" snm="T."
V:4 bass nm="Bass" snm="B."
V:1
 E4 | A2 B2 c2 B2 | (A4 ^G2) A2 | e2 d2 c2 B2 | (c4 B2) ^G2 | A2 B2 c2 d2 | d2 B2 (cBcd | e4) A4 | %8
 (^G2 A2 B2) ed | c4 B4 | A8 |] %11
V:2
 E4 | E2 E2 E2 F2 | E6 A2 | G2 G2 A2 ^G2 | (A4 E2) E2 | E2 ^G2 A2 =G2 | B2 B2 (GFEF | E4) E4 | %8
w: 1.~I|hear the voice of|woe! I|hear a bro- ther|sigh! * Then|let my heart with|pi- ty flow,~ _ _ _|_ With|
 (E2 E2 D2) GF | E4 ^G4 | E8 |] %11
w: tears~ _ _ of *|love mine|eye.|
V:3
 A4 | c2 e2 e2 d2 | (c4 B2) c2 | c2 B2 A2 ^G2 | (A4 ^G2) B2 | c2 d2 e2 d2 | d2 d2 (efed | c4) c4 | %8
 (e2 c2 B2) cB | A4 ^G4 | A8 |] %11
V:4
 A,,4 | A,,2 E,2 C,2 D,2 | E,6 D,2 | C,2 D,2 E,2 E,2 | E,6 E,2 | A,2 ^G,2 A,2 B,2 | G,2 G,2 C,4- | %7
 C,4 A,4 | E,6 C,D, | E,4 E,4 | A,,8 |] %11

